X: 13929
T: Foxhunters, The
R: reel
M: 4/4
K: Gmajor
|:d2 BG dGBG|dGBG AGEG|d2 BG dGBG|AcBG AGEG:|
|:D3B BABG|DGBG AGEG|D3B BABG|AcBG AGEG:|
|:gedB G2 Bd|gedB eA A2|gedB GABG|ABcd eA A2:|
|:dggf g3e|dg g2 egdB|dggf g3d|(3efg dB AGAB:|
|:G2 BG dGBG|GB B2 AGAB|G2 BG dGBG|(3efg dB AGAB:|

